X:1
T:Title
%%score 1 2
L:1/8
Q:1/4=100
M:4/4
K:G
V:1 treble nm="Grand Piano, Soprano"
V:2 bass nm="Choir Pad, LeConte, LMD"
V:1
 [B,G]2 [DB]2- [DB][CA][B,G][CA] | [DB][Ec] [DA]4 z2 | [Fd]2 [Gd]2- [Gd][Ec][DB][CA] | %3
w: By~P.~W.~Hill,~1872 * * * * *|||
 [B,G][CF] [B,G]4 z2 | [GB]2 [FA]2- [FA][FA][FA][DG] | [DF][DG] [DA]4 z2 | %6
w: |||
 [GB]2 [FA]2- [FA][GB][FA][EG] | [DF][^CE] D4 z2 | [Fd]2 [Gd]2- [Gd][DB][DG][DF] | %9
w: |||
 [DG][CE] [B,D]4 [DG]2 | [DB]2 [Ec]2- [Ec][Ec][DB][DG] | [DF][DG] [FA]4 z2 | %12
w: |||
 [EB]2 [EB]2- [EB][EB][Ge][^Gd] | [Ac][^GB] [Ac]4 z2 | [FA]2 [GB]2- [GB][Ec][DB][CA] | %15
w: |||
 [B,G][CF] [B,G]6- | [B,G]2 z2 z4 |] %17
w: ||
V:2
 G,2 G,2- G,/ z/ [D,F,] [B,,G,][D,F,] | G,[C,G,] [D,F,]4 z2 | %2
 [D,C]2 [G,B,]2- [G,B,][C,G,][D,G,][D,F,] | [D,G,][D,A,] G,4 z2 | %4
 [G,D]2 [D,C]2- [D,C][D,C][D,C][D,B,] | [D,A,][D,B,] [D,C]4 z2 | %6
 [G,B,]2 [A,D]2- [A,D][A,^C][A,D]A, | [A,,A,][A,,G,] [D,F,]4 z2 | %8
 [D,C]2 [G,B,]2- [G,B,]G,[G,B,][G,B,] | [G,B,][G,C] G,4 B,2 | G,2 [C,G,]2- [C,G,][C,G,]G,[B,D] | %11
 [A,C][G,B,] [D,A,]4 z2 | [E,G,]2 [E,G,]2- [E,G,][E,G,][E,B,][E,B,] | [E,C][E,D] [A,C]4 z2 | %14
 [D,C]2 [G,B,]2- [G,B,][C,A,][D,G,][D,F,] | [D,G,][D,A,] [G,,G,]6- | [G,,G,]2 z2 z4 |] %17

